X:11380
T:Muieira A Camposa
R:muieira
O:Galicia (Spain)
B:Xose Luis Foxo- Os segredos da Gaita
Z:Transcrito por Antonio-Nil
C: Xos\e Romero Su\arez (Os Rosales)
M:6/8
K:Amix
ABA|: {FG}FDFEFE| DFAdcB| cBAGFE| {FG}FEDABA| {FG}FDFEFE| DFAdcB| cBAGFE|1 D3ABA :|2 D3{A}D{A}GE|:{A}(3FGF D{A}D{A}GE|
{A}(3FGF D{A}D{A}GE| {A}FD{A}ECDE| {FG}FED{A}D{A}GE| {A}(3FGF D{A}D{A}GE|{A}(3FGF D{A}D{A}GE| {A}FD{A}EC{A}EC|1 {A}D3{A}D{A}GE :|2 {A}D3{A}D{A}GE |: {A}FD{A}EC{A}GE|
{A}FDEC{A}GE| {A}FD{A}ECDE| {cFG}FED{A}D{A}GE| {A}FD{A}EC{A}GE| {A}FD{A}EC{A}GE| {A}FD{A}EC{A}EC|1 {A}D3{A}D{A}GE:|2 D3E3 |: =F3G3| A3d3| =c3_B3| d3A3|
_B3A3| G3=F3| E3=F3| D3E3| =F3G3| A3d3| =c3_B3| A3G3| _B3A3| G3=F3| E3=F3| D3E3| =F3G2A/2G/2|
E3=F3| G3_B=cB| A6-| A3-A (3BAG| A6-|A6-| A3{c}ABA:| D2||
